X: 2280
T: Back In Time
R: waltz
M: 3/4
K: Dmajor
(3ABc|:d3 fed|B2 A3 F|A3 FED|E2F2A2|
d3 fed|B2 A3 F|A3 Bd2|e3 de2|
f3 ede|d2 B3A|d2A2F2|(3EFE D2E2|
F3 A d2|B2A3F|E3FA2|1 B4 (3ABc:|2 B2-B2-B2||
|:a3 gfg|f3e2d|e3fd2|(3BcB A2-A2|
a3 gfg|f3e2d|e3fg2|a2d'2 b2|
a3 gfg|f3e2d|(3BcB A2F2|ED3E2|
F3 A d2|B2A3F|E3FA2|B2-B2-B2:|

